X:8536
T:Kilavel Jig
R:Jig
S:Cath Custy, Ennis, Co. Clare
M:6/8
L:1/8
K:G
|:B2E GFE|d2d edB|AFF DFF|AFA dAF|
B2E GFE|d2d edB|AFA dAF|FED E3:|
|:Bef gfe|f2f edB|BAF FEF|DFA BAF|
Bef gfe|f2f edB|BAB dAF|FED E3:|]
